img/footer_vk.svg

<svg width="18" height="18" viewBox="0 0 18 18" fill="none" xmlns="http://www.w3.org/2000/svg">
<path d="M8.63057 18H9.38014C13.449 18 15.4834 18 16.7473 16.7366C18.0107 15.4727 18 13.4387 18 9.38014V8.61986C18 4.56214 18 2.52729 16.7473 1.26343C15.4946 0 13.4486 0 9.38014 0H8.63057C4.56129 0 2.52729 0 1.26343 1.26343C0 2.52729 0 4.56043 0 8.61986V9.38014C0 13.4387 0 15.4727 1.26343 16.7366C2.52729 18 4.56129 18 8.63057 18Z" fill="rgba(44, 117, 185, 0.3)"/>
<path d="M9.65956 12.9777C5.60099 12.9777 3.13756 10.162 3.04199 5.48242H5.09742C5.16171 8.91956 6.72556 10.3784 7.92428 10.6758V5.48242H9.89485V8.44814C11.0511 8.31956 12.2606 6.97042 12.6681 5.48242H14.6057C14.2954 7.31328 12.9784 8.66242 12.0471 9.21956C12.9784 9.66956 14.4776 10.8473 15.0557 12.9777H12.9253C12.4753 11.5536 11.3721 10.4504 9.89485 10.3004V12.9777H9.65956Z" fill="white"/>
</svg>

<svg width="18" height="18" fill="none" xmlns="http://www.w3.org/2000/svg"><path d="M8.63 18h.75c4.069 0 6.103 0 7.367-1.263C18.011 15.473 18 13.439 18 9.38v-.76c0-4.058 0-6.093-1.253-7.357C15.495 0 13.45 0 9.38 0h-.75C4.562 0 2.528 0 1.264 1.263 0 2.527 0 4.56 0 8.62v.76c0 4.059 0 6.093 1.263 7.357C2.527 18 4.561 18 8.631 18Z" fill="rgba(44, 117, 185, 0.3)"/><path d="M9.66 12.978c-4.059 0-6.522-2.816-6.618-7.496h2.055c.065 3.438 1.629 4.896 2.827 5.194V5.482h1.97v2.966c1.157-.128 2.367-1.478 2.774-2.966h1.938c-.31 1.831-1.628 3.18-2.559 3.738.931.45 2.43 1.627 3.009 3.758h-2.13c-.45-1.424-1.554-2.528-3.031-2.678v2.678H9.66Z" fill="#fff"/></svg>
